Avidclan_Website/assets/images/5-days.svg

<?xml version="1.0"?>
<svg xmlns="http://www.w3.org/2000/svg" xmlns:xlink="http://www.w3.org/1999/xlink" xmlns:svgjs="http://svgjs.com/svgjs" version="1.1" width="512" height="512" x="0" y="0" viewBox="0 0 512 512" style="enable-background:new 0 0 512 512" xml:space="preserve"><g>
<g xmlns="http://www.w3.org/2000/svg" id="XMLID_1156_">
	<g id="XMLID_416_">
		<path id="XMLID_419_" d="M488,355.335V70.5c0-16.818-13.683-30.5-30.5-30.5H385V30c0-16.542-13.458-30-30-30s-30,13.458-30,30v10    H163V30c0-16.542-13.458-30-30-30s-30,13.458-30,30v10H30.5C13.683,40,0,53.682,0,70.5v371C0,458.318,13.683,472,30.5,472h136.301    c5.522,0,10-4.477,10-10s-4.478-10-10-10H30.5c-5.79,0-10.5-4.71-10.5-10.5v-371C20,64.71,24.71,60,30.5,60H103v10    c0,16.542,13.458,30,30,30s30-13.458,30-30V60h162v10c0,16.542,13.458,30,30,30s30-13.458,30-30V60h72.5    c5.79,0,10.5,4.71,10.5,10.5V120H90c-5.522,0-10,4.477-10,10s4.478,10,10,10h378v198.437c-8.514-5.37-17.944-9.41-28-11.831V178    c0-5.523-4.478-10-10-10H58c-5.522,0-10,4.477-10,10v236c0,5.523,4.478,10,10,10h266.197c0.621,9.815,2.752,19.225,6.169,28H246.8    c-5.522,0-10,4.477-10,10s4.478,10,10,10h94.303c17.027,24.174,45.147,40,76.897,40c51.832,0,94-42.168,94-94    C512,393.946,502.914,371.978,488,355.335z M143,70c0,5.514-4.486,10-10,10s-10-4.486-10-10V30c0-5.514,4.486-10,10-10    s10,4.486,10,10V70z M365,70c0,5.514-4.486,10-10,10s-10-4.486-10-10V30c0-5.514,4.486-10,10-10s10,4.486,10,10V70z M418,324    c-4.649,0-9.219,0.345-13.69,1H365.6v-58H420v57.025C419.335,324.011,418.669,324,418,324z M325.043,404H291.2v-59H345.6v13.114    C334.937,370.983,327.633,386.731,325.043,404z M68,267h54.4v58H68V267z M142.4,267H196.8v58H142.4V267z M291.2,267H345.6v58    H291.2V267z M271.2,325h-54.4v-58h54.4V325z M291.2,247v-59H345.6v59H291.2z M271.2,247h-54.4v-59h54.4V247z M196.8,247H142.4v-59    H196.8V247z M196.8,345v59H142.4v-59H196.8z M216.8,345h54.4v59h-54.4V345z M420,247h-54.4v-59H420V247z M122.4,188v59H68v-59    H122.4z M68,345h54.4v59H68V345z M418,492c-40.804,0-74-33.196-74-74s33.196-74,74-74s74,33.196,74,74S458.804,492,418,492z" fill="#007bfc" data-original="#000000" style=""/>
		<path id="XMLID_1115_" d="M446.929,393.762L416,424.691l-13.762-13.762c-3.904-3.905-10.234-3.905-14.143,0    c-3.905,3.905-3.905,10.237,0,14.142l20.833,20.833c1.876,1.875,4.419,2.929,7.071,2.929s5.195-1.054,7.071-2.929l38-38    c3.905-3.905,3.905-10.237,0-14.143C457.165,389.857,450.835,389.857,446.929,393.762z" fill="#007bfc" data-original="#000000" style=""/>
		<path id="XMLID_1116_" d="M206.8,452c-2.63,0-5.21,1.07-7.07,2.93c-1.859,1.86-2.93,4.44-2.93,7.07c0,2.63,1.07,5.21,2.93,7.07    c1.86,1.86,4.44,2.93,7.07,2.93s5.21-1.07,7.07-2.93c1.859-1.86,2.93-4.44,2.93-7.07c0-2.63-1.07-5.21-2.93-7.07    C212.01,453.07,209.43,452,206.8,452z" fill="#007bfc" data-original="#000000" style=""/>
		<path id="XMLID_1120_" d="M57.069,137.07C58.93,135.21,60,132.63,60,130c0-2.63-1.07-5.21-2.931-7.07    C55.21,121.07,52.63,120,50,120c-2.641,0-5.21,1.07-7.07,2.93c-1.86,1.86-2.93,4.44-2.93,7.07c0,2.63,1.069,5.21,2.93,7.07    S47.359,140,50,140C52.63,140,55.21,138.93,57.069,137.07z" fill="#007bfc" data-original="#000000" style=""/>
	</g>
</g>















</g></svg>

<svg width="512" height="512" viewBox="0 0 512 512" fill="none" xmlns="http://www.w3.org/2000/svg">
<g clip-path="url(#clip0_496_1145)">
<path d="M488 355.335V70.5C488 53.682 474.317 40 457.5 40H385V30C385 13.458 371.542 0 355 0C338.458 0 325 13.458 325 30V40H163V30C163 13.458 149.542 0 133 0C116.458 0 103 13.458 103 30V40H30.5C13.683 40 0 53.682 0 70.5V441.5C0 458.318 13.683 472 30.5 472H166.801C172.323 472 176.801 467.523 176.801 462C176.801 456.477 172.323 452 166.801 452H30.5C24.71 452 20 447.29 20 441.5V70.5C20 64.71 24.71 60 30.5 60H103V70C103 86.542 116.458 100 133 100C149.542 100 163 86.542 163 70V60H325V70C325 86.542 338.458 100 355 100C371.542 100 385 86.542 385 70V60H457.5C463.29 60 468 64.71 468 70.5V120H90C84.478 120 80 124.477 80 130C80 135.523 84.478 140 90 140H468V338.437C459.486 333.067 450.056 329.027 440 326.606V178C440 172.477 435.522 168 430 168H58C52.478 168 48 172.477 48 178V414C48 419.523 52.478 424 58 424H324.197C324.818 433.815 326.949 443.225 330.366 452H246.8C241.278 452 236.8 456.477 236.8 462C236.8 467.523 241.278 472 246.8 472H341.103C358.13 496.174 386.25 512 418 512C469.832 512 512 469.832 512 418C512 393.946 502.914 371.978 488 355.335ZM143 70C143 75.514 138.514 80 133 80C127.486 80 123 75.514 123 70V30C123 24.486 127.486 20 133 20C138.514 20 143 24.486 143 30V70ZM365 70C365 75.514 360.514 80 355 80C349.486 80 345 75.514 345 70V30C345 24.486 349.486 20 355 20C360.514 20 365 24.486 365 30V70ZM418 324C413.351 324 408.781 324.345 404.31 325H365.6V267H420V324.025C419.335 324.011 418.669 324 418 324ZM325.043 404H291.2V345H345.6V358.114C334.937 370.983 327.633 386.731 325.043 404ZM68 267H122.4V325H68V267ZM142.4 267H196.8V325H142.4V267ZM291.2 267H345.6V325H291.2V267ZM271.2 325H216.8V267H271.2V325ZM291.2 247V188H345.6V247H291.2ZM271.2 247H216.8V188H271.2V247ZM196.8 247H142.4V188H196.8V247ZM196.8 345V404H142.4V345H196.8ZM216.8 345H271.2V404H216.8V345ZM420 247H365.6V188H420V247ZM122.4 188V247H68V188H122.4ZM68 345H122.4V404H68V345ZM418 492C377.196 492 344 458.804 344 418C344 377.196 377.196 344 418 344C458.804 344 492 377.196 492 418C492 458.804 458.804 492 418 492Z" fill="#0E53BE"/>
<path d="M446.929 393.762L416 424.691L402.238 410.929C398.334 407.024 392.004 407.024 388.095 410.929C384.19 414.834 384.19 421.166 388.095 425.071L408.928 445.904C410.804 447.779 413.347 448.833 415.999 448.833C418.651 448.833 421.194 447.779 423.07 445.904L461.07 407.904C464.975 403.999 464.975 397.667 461.07 393.761C457.165 389.857 450.835 389.857 446.929 393.762Z" fill="#0E53BE"/>
<path d="M206.8 452C204.17 452 201.59 453.07 199.73 454.93C197.871 456.79 196.8 459.37 196.8 462C196.8 464.63 197.87 467.21 199.73 469.07C201.59 470.93 204.17 472 206.8 472C209.43 472 212.01 470.93 213.87 469.07C215.729 467.21 216.8 464.63 216.8 462C216.8 459.37 215.73 456.79 213.87 454.93C212.01 453.07 209.43 452 206.8 452Z" fill="#0E53BE"/>
<path d="M57.069 137.07C58.93 135.21 60 132.63 60 130C60 127.37 58.93 124.79 57.069 122.93C55.21 121.07 52.63 120 50 120C47.359 120 44.79 121.07 42.93 122.93C41.07 124.79 40 127.37 40 130C40 132.63 41.069 135.21 42.93 137.07C44.791 138.93 47.359 140 50 140C52.63 140 55.21 138.93 57.069 137.07Z" fill="#0E53BE"/>
</g>
<defs>
<clipPath id="clip0_496_1145">
<rect width="512" height="512" fill="white"/>
</clipPath>
</defs>
</svg>
